X:1
T: McPherson's Bairns
C:Bruce Shawyer, adapted from original by James Ritchie
R:Reel
Q:232
K:A
M:4/4
L:1/8
e2|"A"c2e2 c2BA|"D"d2fg a2fg|"A"a2ed c2BA|"B7"c2B2 "E7"B2ed|"A"c2e2 c2BA|"D"d2fg a2fg|"A"a2cA "E7"B2fe|"A"c2A2 A3f|
"A"a2ed c2BA|"D"d2fg a2fg|"A"a2ed c2BA|"B7"c2B2 "E7"B2ed|"A"c2e2 c2BA|"D"d2fg a2fg|"A"a2cA "E7"B2fe|"A"c2 "D"A2 "A"A3e|
"A"ceeA c2BA|"D"defg a2fg|"A"aAae f2ed|"B7"c2B2 "E7"B2ed|"A"ceeA c2BA|"D"defg a2fg|"A"a2cA "E7"B2fe|"A"c2 "D"A2 "A"A3a|
"D"f2d2 d2ag|"A"fece c2BA|"A"aAae f2ed|"B7"c2B2 "E7"B2e2|"D"f2d2 d2ag|"A"fece c2fg|"A"a2cA "E7"B2fe|"A"c2 "D"A2 "A"A2||
